X: 21151
T: Kate's Welcome To Aberfoyle
R: reel
M: 4/4
K: Cmajor
GA|cee/e/e e2 dc|A/A/AGE DDCD|E2 GE GAAc|dedc ecGA|
cee/e/e e2 dc|A/A/AGE DDCD|E2 GE GAcA|1 cAGE C2:|2 cAGE C2 A/B/c||
|:d3 e eGAc|f2 Ge- eGdG|c3 d dcde|cAGA cGA/B/c|
d3 e eGAc|f2 Ge- eGdG|c3 d dcde|1 cAGE C2 A/B/c:|2 cAGE C2||

